X: 14262
T: G-
R: reel
M: 4/4
K: Gdorian
|:G2 DG {A}GAcf|dcfA G^FG=F|DGAG A/B/c GA|FC A,/B,/C DFAF||
G2 DG {A}GAcf|bf{b}af [fd]efg|afdc {d}cAFc|1 AF{d}cA G3 G:|2 AF{d}cA G3 g||
{a}gf[fd]f g2 [fd]g|{a}gf d/e/f afga|~c2 AG {A}GF{d}cA|FC A,/B,/C DdAa||
gf[fd]f g2 [fd]g|{a}gf d/e/f af{a}gf|[fd]geg fdcA|FcA^F G3 g|
{a}gf[fd]f g2 [fd]g|{a}gf d/e/f afga|~c2 AG {A}GF{d}cA|FC A,/B,/C DFAF||
~G2 DG {A}GAcf|bf{b}af [fd]efg|afdc {d}cAFc|AF{d}cA G3 G||

